src/pos-icons/pinwheel-outline.svg

<svg height="24" viewBox="0 0 24 24" width="24" xmlns="http://www.w3.org/2000/svg"><path d="m12 23h-1v-6.57c-1.07.97-2.5 1.57-4 1.57-3.25 0-6-2.75-6-6v-1h6.57c-.97-1.07-1.57-2.5-1.57-4 0-3.25 2.75-6 6-6h1v6.57c1.07-.97 2.5-1.57 4-1.57 3.25 0 6 2.75 6 6v1h-6.57c.97 1.07 1.57 2.5 1.57 4 0 3.25-2.75 6-6 6m1-9.87v7.74c1.7-.46 3-2.04 3-3.87s-1.3-3.41-3-3.87m-9.87-.13c.46 1.7 2.04 3 3.87 3s3.41-1.3 3.87-3zm10-2h7.74c-.46-1.7-2.05-3-3.87-3s-3.41 1.3-3.87 3m-2.13-7.87c-1.7.46-3 2.05-3 3.87s1.3 3.41 3 3.87z"/></svg>

<?xml version="1.0" encoding="UTF-8"?><!DOCTYPE svg PUBLIC "-//W3C//DTD SVG 1.1//EN" "http://www.w3.org/Graphics/SVG/1.1/DTD/svg11.dtd"><svg xmlns="http://www.w3.org/2000/svg" xmlns:xlink="http://www.w3.org/1999/xlink" version="1.1" id="mdi-pinwheel-outline" width="24" height="24" viewBox="0 0 24 24"><path d="M12,23H11V16.43C9.93,17.4 8.5,18 7,18C3.75,18 1,15.25 1,12V11H7.57C6.6,9.93 6,8.5 6,7C6,3.75 8.75,1 12,1H13V7.57C14.07,6.6 15.5,6 17,6C20.25,6 23,8.75 23,12V13H16.43C17.4,14.07 18,15.5 18,17C18,20.25 15.25,23 12,23M13,13.13V20.87C14.7,20.41 16,18.83 16,17C16,15.17 14.7,13.59 13,13.13M3.13,13C3.59,14.7 5.17,16 7,16C8.83,16 10.41,14.7 10.87,13H3.13M13.13,11H20.87C20.41,9.3 18.82,8 17,8C15.18,8 13.59,9.3 13.13,11M11,3.13C9.3,3.59 8,5.18 8,7C8,8.82 9.3,10.41 11,10.87V3.13Z" /></svg>
